X:550
T: O'Callaghan's
T: R\'il U\'i Cheallach\'ain
S: B.Breathnach: "Ceol Rince na hEireann" II/131
Z: B.Black
L: 1/8
M: 4/4
R: reel
K: G
B>A|GGGA Bdgd|BABG AE E2|GBAF GABd|(3efg fa gedB|
G2 GA Bdgd|BABG AE E2|GBAF GABd|(3efg fa g3z ||
gfga baaf|gaba gfed|B2 BA GABd|(3efg fa gfef|
gfga baaf|gaba gfed|BdAB GABd|(3efg fa gedB||

